.local/share/icons/FairyWren_Light/symbolic/places/folder-publicshare.svg

<?xml version="1.0" encoding="UTF-8" standalone="no"?>
<svg
   width="16"
   height="16"
   viewBox="0 0 16 16"
   version="1.1"
   id="svg1"
   sodipodi:docname="folder-publicshare.svg"
   inkscape:version="1.4 (e7c3feb100, 2024-10-09)"
   xmlns:inkscape="http://www.inkscape.org/namespaces/inkscape"
   xmlns:sodipodi="http://sodipodi.sourceforge.net/DTD/sodipodi-0.dtd"
   xmlns:xlink="http://www.w3.org/1999/xlink"
   xmlns="http://www.w3.org/2000/svg"
   xmlns:svg="http://www.w3.org/2000/svg">
  <sodipodi:namedview
     id="namedview1"
     pagecolor="#ffffff"
     bordercolor="#000000"
     borderopacity="0.25"
     inkscape:showpageshadow="2"
     inkscape:pageopacity="0.0"
     inkscape:pagecheckerboard="0"
     inkscape:deskcolor="#d1d1d1"
     inkscape:zoom="49.40009"
     inkscape:cx="6.1841993"
     inkscape:cy="9.8279174"
     inkscape:current-layer="svg1" />
  <defs
     id="defs1">
    <inkscape:path-effect
       effect="fillet_chamfer"
       id="path-effect3"
       is_visible="true"
       lpeversion="1"
       nodesatellites_param="F,0,0,1,0,0,0,1 @ F,0,0,1,0,0,0,1 @ F,0,0,1,0,0,0,1 @ F,0,0,1,0,0,0,1 | F,0,0,1,0,0,0,1 @ F,0,0,1,0,0,0,1 @ F,0,0,1,0,0.30279498,0,1 @ F,0,0,1,0,0,0,1 @ F,0,0,1,0,0.30279498,0,1 @ F,0,0,1,0,0,0,1 @ F,0,0,1,0,0,0,1 | F,0,0,1,0,0,0,1 @ F,0,0,1,0,0,0,1 @ F,0,1,1,0,0.63786779,0,1 @ F,0,1,1,0,0.63786779,0,1 @ F,0,0,1,0,0,0,1 @ F,0,0,1,0,0,0,1 | F,0,0,1,0,0,0,1 @ F,0,0,1,0,0,0,1 @ F,0,0,1,0,0,0,1 @ F,0,0,1,0,0,0,1 @ F,0,1,1,0,0.63786779,0,1 @ F,0,0,1,0,0.63786779,0,1 @ F,0,0,1,0,0,0,1 @ F,0,0,1,0,0,0,1"
       radius="0"
       unit="px"
       method="auto"
       mode="F"
       chamfer_steps="1"
       flexible="false"
       use_knot_distance="true"
       apply_no_radius="true"
       apply_with_radius="true"
       only_selected="false"
       hide_knots="false" />
    <style
       id="current-color-scheme"
       type="text/css">
   .ColorScheme-Text { color:#dfdfdf; } .ColorScheme-Highlight { color:#4285f4; } .ColorScheme-NeutralText { color:#ff9800; } .ColorScheme-PositiveText { color:#4caf50; } .ColorScheme-NegativeText { color:#f44336; }
  </style>
    <radialGradient
       id="SVGID_1_-3-2-7"
       cx="-159.43106"
       cy="15.462561"
       r="64.706802"
       gradientTransform="matrix(-0.89413329,0,0,0.96304834,-80.753654,49.330428)"
       gradientUnits="userSpaceOnUse"
       fx="-159.43106"
       fy="15.462561">
      <stop
         offset="0"
         style="stop-color:#006fff;stop-opacity:1;"
         id="stop1-6-9-5" />
      <stop
         offset="1"
         style="stop-color:#15baff;stop-opacity:1;"
         id="stop2-7-1-3" />
    </radialGradient>
    <inkscape:path-effect
       effect="fillet_chamfer"
       id="path-effect1"
       is_visible="true"
       lpeversion="1"
       nodesatellites_param="F,0,0,1,0,2.2050452,0,1 @ F,0,1,1,0,2.2050452,0,1 @ F,0,1,1,0,2.2050452,0,1 @ F,0,1,1,0,2.2050452,0,1 @ F,0,0,1,0,0.95487539,0,1 @ F,0,0,1,0,0.95487539,0,1"
       radius="0"
       unit="px"
       method="auto"
       mode="F"
       chamfer_steps="1"
       flexible="false"
       use_knot_distance="true"
       apply_no_radius="true"
       apply_with_radius="true"
       only_selected="false"
       hide_knots="false" />
    <radialGradient
       inkscape:collect="always"
       xlink:href="#SVGID_1_-3-2-7"
       id="radialGradient3"
       cx="18.972603"
       cy="22.004742"
       fx="18.972603"
       fy="22.004742"
       r="8"
       gradientTransform="matrix(0,-1.9859914,2.1997894,0,-29.433196,57.152029)"
       gradientUnits="userSpaceOnUse" />
  </defs>
  <path
     style="fill:url(#radialGradient3)"
     class="ColorScheme-Text"
     d="M 6,2 C 4.3431,2 3,3.3432 3,5 3,6.6568 4.3431,8 6,8 7.6569,8 9,6.6568 9,5 9,3.3432 7.6569,2 6,2 Z M 10.996094,3.9453125 11,3.9492188 c -0.280843,0 -0.549513,0.046719 -0.801828,0.1289477 C 10.039276,4.1299502 9.9449057,4.3201917 9.9665839,4.4859698 9.9885221,4.653736 10,4.824637 10,4.9980469 10,5.9920638 9.6305073,6.9047152 9.022889,7.6067552 8.9134765,7.7331701 8.8896556,7.942866 8.9971809,8.070818 c 0.473769,0.5637714 1.1898141,0.9272289 1.9989131,0.9272289 1.4327,0 2.59375,-1.1302907 2.59375,-2.5253907 0,-1.3950999 -1.16105,-2.5273437 -2.59375,-2.5273437 z M 6,9.9960938 C -2e-4,9.9994938 0,14 0,14 v 0.362132 A 0.63786779,0.63786779 45 0 0 0.63786779,15 H 11.362132 A 0.63786779,0.63786779 135 0 0 12,14.362132 V 14 c 0,0 0,-4.01 -6,-4 z m 5,0.00195 V 10 c -0.1961,0 -0.371714,0.01258 -0.552734,0.02148 0.69756,0.39966 1.229115,0.877074 1.603515,1.376954 0.535536,0.717848 0.76896,1.461536 0.870684,1.96862 0.06907,0.344317 0.364118,0.630993 0.716403,0.630993 h 1.724264 A 0.63786779,0.63786779 135 0 0 16,13.360179 v -0.362132 c 0,0 0,-3.0000001 -5,-3.0000001 z"
     id="path1"
     inkscape:path-effect="#path-effect3"
     inkscape:original-d="M 6,2 C 4.3431,2 3,3.3432 3,5 3,6.6568 4.3431,8 6,8 7.6569,8 9,6.6568 9,5 9,3.3432 7.6569,2 6,2 Z M 10.996094,3.9453125 11,3.9492188 c -0.38828,0 -0.753294,0.089301 -1.0839844,0.2382812 C 9.9706156,4.44955 10,4.7205869 10,4.9980469 c 0,1.1021 -0.4542138,2.1041781 -1.1835938,2.8300781 0.46,0.7 1.2596878,1.1699219 2.1796878,1.1699219 1.4327,0 2.59375,-1.1302907 2.59375,-2.5253907 0,-1.3950999 -1.16105,-2.5273437 -2.59375,-2.5273437 z M 6,9.9960938 C -2e-4,9.9994938 0,14 0,14 v 1 h 12 v -1 c 0,0 0,-4.01 -6,-4 z m 5,0.00195 V 10 c -0.1961,0 -0.371714,0.01258 -0.552734,0.02148 0.69756,0.39966 1.229115,0.877074 1.603515,1.376954 C 12.990781,12.658437 13,13.998047 13,13.998047 h 3 v -1 c 0,0 0,-3.0000001 -5,-3.0000001 z"
     transform="translate(0,-0.5)" />
</svg>

<svg xmlns="http://www.w3.org/2000/svg" width="16" height="16">
 <defs>
  <style id="current-color-scheme" type="text/css">
   .ColorScheme-Text { color:#444444; } .ColorScheme-Highlight { color:#4285f4; } .ColorScheme-NeutralText { color:#ff9800; } .ColorScheme-PositiveText { color:#4caf50; } .ColorScheme-NegativeText { color:#f44336; }
  </style>
 </defs>
 <path style="fill:currentColor" class="ColorScheme-Text" d="M 6 2 C 4.3431 2 3 3.3432 3 5 C 3 6.6568 4.3431 8 6 8 C 7.6569 8 9 6.6568 9 5 C 9 3.3432 7.6569 2 6 2 z M 10.996094 3.9453125 L 11 3.9492188 C 10.61172 3.9492188 10.246706 4.03852 9.9160156 4.1875 C 9.9706156 4.44955 10 4.7205869 10 4.9980469 C 10 6.1001469 9.5457862 7.102225 8.8164062 7.828125 C 9.2764062 8.528125 10.076094 8.9980469 10.996094 8.9980469 C 12.428794 8.9980469 13.589844 7.8677562 13.589844 6.4726562 C 13.589844 5.0775563 12.428794 3.9453125 10.996094 3.9453125 z M 6 9.9960938 C -0.0002 9.9994938 1.1555965e-33 14 0 14 L 0 15 L 12 15 L 12 14 C 12 14 12 9.99 6 10 L 6 9.9960938 z M 11 9.9980469 L 11 10 C 10.8039 10 10.628286 10.012584 10.447266 10.021484 C 11.144826 10.421144 11.676381 10.898558 12.050781 11.398438 C 12.990781 12.658437 13 13.998047 13 13.998047 L 16 13.998047 L 16 12.998047 C 16 12.998047 16 9.9980469 11 9.9980469 z"/>
</svg>
